dist/assets/symbols/file.svg

<svg viewBox="0 0 20 20" fill="none" xmlns="http://www.w3.org/2000/svg">
<path d="M3.33325 17.7333V2.26666C3.33325 1.93529 3.60188 1.66666 3.93325 1.66666H13.5014C13.6605 1.66666 13.8131 1.72987 13.9257 1.84239L16.4908 4.40759C16.6034 4.52011 16.6666 4.67272 16.6666 4.83185V17.7333C16.6666 18.0647 16.398 18.3333 16.0666 18.3333H3.93325C3.60188 18.3333 3.33325 18.0647 3.33325 17.7333Z" stroke="currentColor" stroke-width="0.84" stroke-linecap="round" stroke-linejoin="round"/>
<path d="M13.3333 4.39999V1.96128C13.3333 1.79857 13.4652 1.66666 13.6279 1.66666C13.706 1.66666 13.781 1.6977 13.8362 1.75295L16.5803 4.49703C16.6355 4.55228 16.6666 4.62722 16.6666 4.70536C16.6666 4.86808 16.5347 4.99999 16.372 4.99999H13.9333C13.6019 4.99999 13.3333 4.73136 13.3333 4.39999Z" fill="currentColor" stroke="currentColor" stroke-width="0.84" stroke-linecap="round" stroke-linejoin="round"/>
<path d="M6.66675 8.33334L13.3334 8.33334" stroke="currentColor" stroke-width="0.84" stroke-linecap="round" stroke-linejoin="round"/>
<path d="M6.66675 15L13.3334 15" stroke="currentColor" stroke-width="0.84" stroke-linecap="round" stroke-linejoin="round"/>
<path d="M6.66675 11.6667L10.0001 11.6667" stroke="currentColor" stroke-width="0.84" stroke-linecap="round" stroke-linejoin="round"/>
</svg>

<svg xmlns="http://www.w3.org/2000/svg" fill="none" viewBox="0 0 20 20"><path stroke="currentColor" stroke-linecap="round" stroke-linejoin="round" stroke-width=".84" d="M3.333 17.733V2.267a.6.6 0 0 1 .6-.6h9.568a.6.6 0 0 1 .425.175l2.565 2.566a.6.6 0 0 1 .176.424v12.901a.6.6 0 0 1-.6.6H3.933a.6.6 0 0 1-.6-.6Z"/><path fill="currentColor" stroke="currentColor" stroke-linecap="round" stroke-linejoin="round" stroke-width=".84" d="M13.333 4.4V1.961a.295.295 0 0 1 .503-.208l2.744 2.744a.295.295 0 0 1-.208.503h-2.439a.6.6 0 0 1-.6-.6Z"/><path stroke="currentColor" stroke-linecap="round" stroke-linejoin="round" stroke-width=".84" d="M6.667 8.333h6.666M6.667 15h6.666M6.667 11.667H10"/></svg>
